X: 148
T: 'Twas on a Summer Morning
N:"Tenderly" "collected by J. O'Neill"
B:O'Neill's 148
Z:Transcribed by henrik.norbeck@mailbox.swipnet.se
M:2/4
L:1/8
K:F
(c/d/4e/4)|(f>e) (d>c)|c2 A(3F/A/c/|d2 (G>A)|F2 z||
(A/B/)|(cd/e/) (fg)|fe z (e/f/)|g(c/d/) e>d|c2 z (c/d/4e/4)|
f>e {e2}d>c|c2 A(3F/A/c/|d2 G>A|F3||


